dist/assets/img/categoria-infraestrutura.svg

<?xml version="1.0" encoding="UTF-8" standalone="no"?>
<svg width="30px" height="30px" viewBox="0 0 30 30" version="1.1" xmlns="http://www.w3.org/2000/svg" xmlns:xlink="http://www.w3.org/1999/xlink" xmlns:sketch="http://www.bohemiancoding.com/sketch/ns">
    <!-- Generator: sketchtool 3.4.4 (395) - http://www.bohemiancoding.com/sketch -->
    <title>infraestrutura</title>
    <desc>Created with sketchtool.</desc>
    <defs></defs>
    <g id="Page-1" stroke="none" stroke-width="1" fill="none" fill-rule="evenodd" sketch:type="MSPage">
        <g id="Desktop-HD" sketch:type="MSArtboardGroup" transform="translate(-948.000000, -499.000000)" fill="#FFFFFF">
            <g id="Page-1" sketch:type="MSLayerGroup" transform="translate(948.000000, 499.000000)">
                <path d="M15.0108,25.04175 C9.5013,25.04175 5.0188,20.55925 5.0188,15.04975 C5.0188,9.54075 9.5013,5.05825 15.0108,5.05825 C20.5203,5.05825 25.0023,9.54075 25.0023,15.04975 C25.0023,20.55925 20.5203,25.04175 15.0108,25.04175 M29.6763,12.94725 L27.1988,12.48625 C26.8753,10.94175 26.2833,9.50225 25.4458,8.22425 L26.9118,6.11325 C27.0673,5.95775 27.0718,5.70325 26.9163,5.54775 L24.5103,3.13975 C24.3553,2.98425 24.1018,2.98425 23.9463,3.13975 L21.8363,4.59625 C20.5578,3.75875 19.1188,3.14725 17.5743,2.82375 L17.1133,0.35425 C17.1133,0.13425 16.9333,0.00025 16.7138,0.00025 L13.3078,0.00025 C13.0878,0.00025 12.9083,0.13425 12.9083,0.35425 L12.4468,2.84675 C10.9023,3.17025 9.4628,3.76975 8.1843,4.60775 L6.0738,3.14575 C5.9183,2.99025 5.6638,2.98725 5.5083,3.14275 L3.1003,5.54925 C2.9448,5.70475 2.9448,5.95875 3.1003,6.11425 L4.5568,8.22475 C3.7193,9.50325 3.1083,10.94175 2.7848,12.48625 L0.3348,12.94775 C0.1148,12.94775 -0.0002,13.12775 -0.0002,13.34725 L-0.0002,16.75325 C-0.0002,16.97275 0.1148,17.15275 0.3348,17.15275 L2.8173,17.61425 C3.1408,19.15875 3.7358,20.59775 4.5733,21.87625 L3.1088,23.98725 C2.9533,24.14225 2.9493,24.39675 3.1043,24.55225 L5.5108,26.96075 C5.6663,27.11625 5.9193,27.11625 6.0748,26.96075 L8.1853,25.50375 C9.4638,26.34175 10.9028,26.95275 12.4468,27.27625 L12.9083,29.69575 C12.9083,29.91575 13.0878,30.00025 13.3078,30.00025 L16.7138,30.00025 C16.9333,30.00025 17.1133,29.91575 17.1133,29.69575 L17.5748,27.22825 C19.1193,26.90475 20.5583,26.31775 21.8368,25.48025 L23.9478,26.94875 C24.1028,27.10375 24.3573,27.10975 24.5128,26.95475 L26.9213,24.54925 C27.0763,24.39375 27.0763,24.14075 26.9213,23.98575 L25.4648,21.87525 C26.3023,20.59675 26.9133,19.15825 27.2368,17.61375 L29.6763,17.15225 C29.8958,17.15225 29.9998,16.97275 29.9998,16.75275 L29.9998,13.34725 C29.9998,13.12725 29.8958,12.94725 29.6763,12.94725 Z M15.01075,10.51975 C12.51275,10.51975 10.48025,12.55225 10.48025,15.04975 C10.48025,17.54775 12.51275,19.58025 15.01075,19.58025 C17.50875,19.58025 19.54075,17.54775 19.54075,15.04975 C19.54075,12.55225 17.50875,10.51975 15.01075,10.51975 Z M15.01075,17.08025 C13.89125,17.08025 12.98025,16.16925 12.98025,15.04975 C12.98025,13.93075 13.89125,13.01975 15.01075,13.01975 C16.13025,13.01975 17.04075,13.93075 17.04075,15.04975 C17.04075,16.16925 16.13025,17.08025 15.01075,17.08025 Z" id="infraestrutura" sketch:type="MSShapeGroup"></path>
            </g>
        </g>
    </g>
</svg>

<svg width="30" height="30" viewBox="0 0 30 30" xmlns="http://www.w3.org/2000/svg"><title>infraestrutura</title><g id="Page-1" fill="none" fill-rule="evenodd"><g id="Desktop-HD" transform="translate(-948 -499)" fill="#FFF"><g id="Page-1" transform="translate(948 499)"><path d="M15.01 25.042c-5.509 0-9.991-4.483-9.991-9.992 0-5.51 4.482-9.992 9.992-9.992 5.51 0 9.991 4.483 9.991 9.992 0 5.51-4.482 9.992-9.991 9.992m14.665-12.095l-2.477-.46a12.382 12.382 0 0 0-1.753-4.263l1.466-2.11a.401.401 0 0 0 .004-.566L24.51 3.14a.4.4 0 0 0-.564 0l-2.11 1.456a12.422 12.422 0 0 0-4.262-1.772l-.46-2.47c0-.22-.18-.354-.4-.354h-3.406c-.22 0-.4.134-.4.354l-.461 2.493a12.393 12.393 0 0 0-4.263 1.76l-2.11-1.461a.401.401 0 0 0-.566-.003L3.1 5.549a.4.4 0 0 0 0 .565l1.457 2.11a12.418 12.418 0 0 0-1.772 4.262l-2.45.462c-.22 0-.335.18-.335.4v3.405c0 .22.115.4.335.4l2.482.461a12.391 12.391 0 0 0 1.756 4.262L3.11 23.987a.4.4 0 0 0-.005.565l2.407 2.409a.4.4 0 0 0 .564 0l2.11-1.457a12.414 12.414 0 0 0 4.262 1.772l.461 2.42c0 .22.18.304.4.304h3.406c.22 0 .4-.084.4-.304l.46-2.468a12.377 12.377 0 0 0 4.263-1.748l2.11 1.469c.156.155.41.16.566.006l2.408-2.406a.4.4 0 0 0 0-.563l-1.456-2.11a12.418 12.418 0 0 0 1.772-4.262l2.44-.462c.219 0 .323-.18.323-.4v-3.405c0-.22-.104-.4-.324-.4zM15.011 10.52a4.536 4.536 0 0 0-4.53 4.53 4.536 4.536 0 0 0 4.53 4.53 4.535 4.535 0 0 0 4.53-4.53 4.535 4.535 0 0 0-4.53-4.53zm0 6.56c-1.12 0-2.03-.91-2.03-2.03 0-1.12.91-2.03 2.03-2.03 1.12 0 2.03.91 2.03 2.03 0 1.12-.91 2.03-2.03 2.03z" id="infraestrutura"/></g></g></g></svg>
